X:1
T:All Chromatic Notes (3 octaves)
C:Exercise
M:4/4
L:1/4
Q:1/4=120
K:C
C, ^C, D, ^D, | E, F, ^F, G, | ^G, A, ^A, B, |
C ^C D ^D | E F ^F G | ^G A ^A B |
c ^c d ^d | e f ^f g | ^g a ^a b |
c'4 |
